data/themes/default-svg/gear.svg

<svg height="18" width="18" xmlns="http://www.w3.org/2000/svg"><path d="m8.0270042 0c-.5289423 0-.9542971.42536378-.9542971.95430605v.25132025h-.00879a2.5096571 2.5096571 0 0 1 -.3321614 1.2548285 2.5096571 2.5096571 0 0 1 -3.4270705.919141l-.2161642-.1247783c-.4580723-.2644666-1.0395642-.1083385-1.3040398.3497338l-1.03513703 1.7908704c-.26446664.4580723-.10833855 1.0413188.34973373 1.3057945l.2179369.1265329-.00352.00527a2.5096571 2.5096571 0 0 1 .9226683.9121314 2.5096571 2.5096571 0 0 1 -.884012 3.4077155l-.2530749.14587c-.45807228.264475-.61420037.845967-.34973373 1.30404l1.03515503 1.792616c.2644576.458072.8459585.614209 1.3040308.349733l.2214462-.128296a2.5096571 2.5096571 0 0 1 .00175-.0017 2.5096571 2.5096571 0 0 1 1.2530739-.333924 2.5096571 2.5096571 0 0 1 2.5078934 2.493857v.268884c0 .528943.4253638.956061.9543061.956061h2.0685381c.528942 0 .95606-.427118.95606-.956061v-.254836h.02987a2.5096571 2.5096571 0 0 1 .30756-1.256592 2.5096571 2.5096571 0 0 1 2.052718-1.253074 2.5096571 2.5096571 0 0 1 1.323368.311068l.268894.154661c.458081.264476 1.039564.108339 1.30404-.349733l1.035155-1.792616c.264457-.458073.108338-1.039565-.349743-1.30404l-.221446-.128288.01582-.02812a2.5096571 2.5096571 0 0 1 -.933197-.894593 2.5096571 2.5096571 0 0 1 .864666-3.3883962l.274167-.1581706c.458072-.2644757.614209-.8477222.349734-1.3057945l-1.035137-1.7908704c-.264467-.4580723-.845959-.6142004-1.30404-.3497338l-.216164.1247783-.0053-.00878a2.5096571 2.5096571 0 0 1 -1.256566.3409403 2.5096571 2.5096571 0 0 1 -2.504384-2.4674735v-.28997655c0-.52894227-.427118-.95430605-.95606-.95430605zm1.1845255 5.8541149a3.1493764 3.1493764 0 0 1 2.5764513 1.5711789 3.1493764 3.1493764 0 0 1 -1.151143 4.3022732 3.1493764 3.1493764 0 0 1 -4.3022727-1.152906 3.1493764 3.1493764 0 0 1 1.1528967-4.3022729 3.1493764 3.1493764 0 0 1 1.7240767-.4182822z" fill="#fff"/></svg>

<?xml version="1.0" encoding="UTF-8" standalone="no"?>
<svg xml:space="preserve" width="18" height="18" version="1.1"
   xmlns="http://www.w3.org/2000/svg"
   xmlns:svg="http://www.w3.org/2000/svg"
   xmlns:rdf="http://www.w3.org/1999/02/22-rdf-syntax-ns#"
   xmlns:cc="http://creativecommons.org/ns#"
   xmlns:dc="http://purl.org/dc/elements/1.1/">
   <metadata>
    <rdf:RDF>
      <cc:Work>
        <cc:license rdf:resource="http://creativecommons.org/publicdomain/zero/1.0/" />
        <dc:creator>
          <cc:Agent>
            <dc:title>Fawn Sannar</dc:title>
          </cc:Agent>
        </dc:creator>
      </cc:Work>
      <cc:License rdf:about="http://creativecommons.org/publicdomain/zero/1.0/">
        <cc:permits rdf:resource="http://creativecommons.org/ns#Reproduction" />
        <cc:permits rdf:resource="http://creativecommons.org/ns#Distribution" />
        <cc:permits rdf:resource="http://creativecommons.org/ns#DerivativeWorks" />
      </cc:License>
    </rdf:RDF>
  </metadata>
  <path fill="#fff" d="M 8.0270042,0 C 7.4980619,0 7.0727071,0.42536378 7.0727071,0.95430605 V 1.2056263 h -0.00879 A 2.5096571,2.5096571 0 0 1 6.7317557,2.4604548 2.5096571,2.5096571 0 0 1 3.3046852,3.3795958 L 3.088521,3.2548175 C 2.6304487,2.9903509 2.0489568,3.146479 1.7844812,3.6045513 L 0.74934417,5.3954217 C 0.48487753,5.853494 0.64100562,6.4367405 1.0990779,6.7012162 l 0.2179369,0.1265329 -0.00352,0.00527 a 2.5096571,2.5096571 0 0 1 0.9226683,0.9121314 2.5096571,2.5096571 0 0 1 -0.884012,3.4077155 l -0.2530749,0.14587 c -0.45807228,0.264475 -0.61420037,0.845967 -0.34973373,1.30404 l 1.03515503,1.792616 c 0.2644576,0.458072 0.8459585,0.614209 1.3040308,0.349733 l 0.2214462,-0.128296 a 2.5096571,2.5096571 0 0 1 0.00175,-0.0017 2.5096571,2.5096571 0 0 1 1.2530739,-0.333924 2.5096571,2.5096571 0 0 1 2.5078934,2.493857 v 0.268884 c 0,0.528943 0.4253638,0.956061 0.9543061,0.956061 h 2.0685381 c 0.528942,0 0.95606,-0.427118 0.95606,-0.956061 V 16.78911 h 0.02987 a 2.5096571,2.5096571 0 0 1 0.30756,-1.256592 2.5096571,2.5096571 0 0 1 2.052718,-1.253074 2.5096571,2.5096571 0 0 1 1.323368,0.311068 l 0.268894,0.154661 c 0.458081,0.264476 1.039564,0.108339 1.30404,-0.349733 l 1.035155,-1.792616 c 0.264457,-0.458073 0.108338,-1.039565 -0.349743,-1.30404 l -0.221446,-0.128288 0.01582,-0.02812 A 2.5096571,2.5096571 0 0 1 15.884635,10.247783 2.5096571,2.5096571 0 0 1 16.749301,6.8593868 L 17.023468,6.7012162 C 17.48154,6.4367405 17.637677,5.853494 17.373202,5.3954217 L 16.338065,3.6045513 C 16.073598,3.146479 15.492106,2.9903509 15.034025,3.2548175 l -0.216164,0.1247783 -0.0053,-0.00878 A 2.5096571,2.5096571 0 0 1 13.555995,3.7117561 2.5096571,2.5096571 0 0 1 11.051611,1.2442826 V 0.95430605 C 11.051611,0.42536378 10.624493,0 10.095551,0 Z M 9.2115297,5.8541149 A 3.1493764,3.1493764 0 0 1 11.787981,7.4252938 3.1493764,3.1493764 0 0 1 10.636838,11.727567 3.1493764,3.1493764 0 0 1 6.3345653,10.574661 3.1493764,3.1493764 0 0 1 7.487462,6.2723881 3.1493764,3.1493764 0 0 1 9.2115387,5.8541059 Z" />
</svg>
